X: 6
M: C
L: 1/8
K: D
|:\
vdu(BAF) vAFAB | vdu(BAF) vE2uD2 | vdu(BAF) vAu(FA2) |
[1 vBu(BBA) vB2ue2 :|[2 vBu(BBA) vB2ud2 |: vABde vfu(afd) |
vfu(afd) veu(dB2) | vABde vfu(afd) | vBu(BBA) vB2ud2 :|
teacher o' dat name.  Da only idder place it haes been fun wis in
lang time ago so dey laikly took him wi dem.


